X:1
T:İzmir, 87.87 D
T:İzmir, 87.87 D
T:Ada Rose Gibbs (1864-1905)
T:Public Domain Courtesy of the Cyber Hymnal™
C:Ada Rose Gibbs (1864-1905)
Z:Public Domain
Z:Courtesy of the Cyber Hymnal™
%%score ( 1 2 ) 3
L:1/8
Q:1/4=92
M:6/8
K:C
V:1 treble 
V:2 treble 
V:3 bass 
V:1
 G | (ec)[Gd] (ec)[Gd] | [Ge]2 [Gd] [Gc]2 [Gc] | [Ac]2 [Ac] (dc)[FA] | [Ec]3 [EG]2 [Ec] | %5
 [GB]2 [^Fc] [=Fd]2 [Ge] | [Gc]2 A [Gc]2 [Gc] | [GB]2 [Ac] [Bd]2 [ce] | [cd]3 [Bd]2 [Bd] | %9
 [Bd]2 [Bd] [^Ge]2 [EG] | [EA]2 [^GB] [Ac]2 [Ac] | [GB]2 [GB] [^Fc]2 [FB] | [Ee]3 E2 E | %13
 [Ec]2 [Ec] [^Fc]2 [Fc] | [Gc]2 [Gd] [Ge]2 [Ge] | [FA]2 [GB] [Ac]2 [Be] | [Bd]3 c2 |] %17
V:2
 G | G2 G2 x2 | x6 | x3 A2 x | x6 | x6 | x2 A x3 | x6 | x6 | x6 | x6 | x6 | x3 E2 E | x6 | x6 | %15
 x6 | x3 c2 |] %17
V:3
 [CE] | [CE]2 [CF] [CE]2 [CF] | [CE]2 [B,F] [CE]2 [CE] | [F,F]2 [F,F] [F,F]2 [F,C] | %4
 [C,C]3 [C,C]2 [C,C] | [G,D]2 [G,D] [G,D]2 [G,D] | [CE]2 [CF] [CE]2 [CE] | %7
 [D,D]2 [D,D] [D,G]2 [D,^F] | [G,G]3 [G,G]2 [G,G] | [^G,E]2 [G,E] [E,B,]2 [E,B,] | %10
 [A,C]2 [A,D] [A,E]2 [A,E] | [B,E]2 [B,E] [B,^D]2 [B,D] | [E,E]3 [E,E]2 [E,E] | %13
 [A,C]2 [A,C] [_A,C]2 [A,C] | [G,E]2 [G,F] [CE]2 [CE] | [F,C]2 [F,C] [F,F]2 [G,F] | %16
 [C,F]3 [C,E]2 |] %17

